!!!OTL: Edeldame und Bettelmann (36a), S. 124
!!!id: T0162
**kern
*clefG2
*k[f#]
*G:
{8d
=1
4d
8g
8g
=2
8g
8g
8g
8b
=3
8a
8g
8f#
8g
=4
4a}
=5
{4g
=6
4a
4dd
=7
8dd
8cc
8b
8a
=8
4a
8g
8c
=9
4d}
=10
{4d
=11
4d
8d
8dd
=12
4dd
4dd
=13
8cc
8b
8a
8g
=14
4cc}
=15
{4dd
=16
8b
8b
8b
8b
=17
4a
4g
=18
4b
8a
8a
=19
4g}
8r
==
*-
!!!minrhy: 8
!!!meters: 2/4 ]  ZZ[4
!!!cut: Edeldame und Bettelmann (36a), S. 124
!!!reg: Luxemburg
!!!trd: Singendes Volk, Esch-Alzette 1937 posth.
!!!rhy1: X  X_XX  XXXX  XXXX  X_
!!!rhy2: X_  X_X_  XXXX  X_XX  X_
!!!key: T0162  08  G 2/4 ]  ZZ[4
!!!mod: SECHSTONSKALA DUR ?]  AMBITUS[9
!!!kad: 2-541
!!!akz: -5122_252-5_-5544_3231_
!!!fot: 'a__b__c__d__
!!!for: 'a__b__c__d__
!!!fok: '~a_^d_~a_\__
!! PHRAS[AUFTAKTIG]
!!!fkt: Liebeslieder
!!!bem: StraPen, fff Witry, 10.1.1933
!! THILL, Mathias:
!! PR[31] 2K[4] 2G[15] 3K[2] 3G[0] 4A[8] 4Ü[0] 5A[0] 6K[0] 6G[0]
!! 7K[0] 7G[0] 8A[2] MEHR[0] SI[31] ABS[48] SR[19] SP[13]
!! ST[16] 2k[10] 2g[23] 3k[0] 3g[0] 4d[0] 4ü[0] 5d[2] 6k[0] 6g[0]
!! 7k[0] 7g[0] 8d[2] mehr[0] si[38] dm[-7] sr[33] sp[4]
!! 1F[11] 2F[57] 3F[21] 4F[0] LF[0] 2P[11] 3P[0] 4P[0] TRI[0] DF[4] AB[53]
!! TF[0] U3K[0] U3[0] U4[0] U4Ü[0] U5[6] U6K[0] U6[4] U7K[0] U7[4]
!! N1[22] N2K[0] N2[16] N3K[0] N3[18] N4[10] N4Ü[0] N5[16] N6K[0] N6[2]
!!!n7k: 0] N7[0] O1[0] O2K[0] O2[0] O3K[0] O3[0] HÖ[0
